!!!COM: Anon.
!!!OTL: Baculi Sollempnia
!!!SCA: Folio 372'-373
!!!YOR: from 'Thirty-Five Conductus for Two and Three Voices', p.131
!!!YOR: edited by Janet Knapp, Collegium Musicum No. 6, Yale University (1965)
!!!YOR: from the School of Notre Dame; circa 1170-1240
!!!YOO: Yale University
!!!YOY: 1965
**kern	**kern
*M6/8	*M6/8
=1	=1
4G	4d
8A	16e
.	16d
4c	4c
8c	16B
.	16A
=2	=2
4c	4G
8d	8A
4B	4B
8r	8r
=3	=3
4G	4d
8A	16e
.	16d
4c	8c
.	8B
8c	8A
=4	=4
4c	4G
8d	8A
4B	4B
8r	8r
=5	=5
4G	4c
8A	16B
.	16A
4c	4G
8c	8F
=6	=6
4c	4G
4d	4A
4B	4B
8r	8r
=7	=7
4B	4B
8c	8A
4A	4c
8G	8d
=8	=8
4A	8e
.	8d
8B	8c
4G	4d
8r	8r
=9	=9
4G	4c
8A	16B
.	16A
4c	4G
8c	8F
=10	=10
4c	4G
8d	8A
4B	4B
8r	8r
=11	=11
4B	4B
8c	8A
4A	4c
8G	8d
=12	=12
4A	8e
.	8d
8B	8c
4G	4d
8r	8r
=13	=13
4G	4d
8A	{24c
.	24B
.	24A}
4F	4c
8r	8r
=14	=14
4F	4c
8G	{24B
.	24A
.	24G}
4E	4B
8r	8r
=15	=15
4F	4c
8D	8d
4F	8c
.	8B
8D	8A
=16	=16
4F	16G
.	16F
.	8E
8A	8F
4G	4G
8r	8r
=17	=17
4G	4G
8A	8D
4F	4F
8A	8A
=18	=18
8c	4G
8B	.
8G	8A
4E	4B
8r	8r
=19	=19
4E	4e
8D	8d
4F	8c
.	8B
8A	8A
=20	=20
4G	4B
8F	8A
4G	4G
8r	8r
==	==
*-	*-
!!!ENC: David Huron
!!!YEC: Copyright 1987, David Huron
!!!EEV: 1.0
